public/mouth-shapes/mouth-A.svg

<?xml version="1.0" encoding="UTF-8" standalone="no"?>
<svg
   xmlns:dc="http://purl.org/dc/elements/1.1/"
   xmlns:cc="http://creativecommons.org/ns#"
   xmlns:rdf="http://www.w3.org/1999/02/22-rdf-syntax-ns#"
   xmlns:svg="http://www.w3.org/2000/svg"
   xmlns="http://www.w3.org/2000/svg"
   xmlns:sodipodi="http://sodipodi.sourceforge.net/DTD/sodipodi-0.dtd"
   xmlns:inkscape="http://www.inkscape.org/namespaces/inkscape"
   inkscape:version="1.0beta1 (32d4812, 2019-09-19)"
   sodipodi:docname="mouth-A.svg"
   stroke-linejoin="round"
   stroke-linecap="round"
   fill="none"
   stroke="black"
   xml:space="preserve"
   enable-background="new 0 0 1523.678589 1523.678589"
   viewBox="-5e-06 -2.2e-05 1024 71.54377"
   height="768"
   width="1024"
   y="0px"
   x="0px"
   id="Contours"
   version="1.1">
  <metadata
     id="metadata127">
    <rdf:RDF>
      <cc:Work
         rdf:about="">
        <dc:format>image/svg+xml</dc:format>
        <dc:type
           rdf:resource="http://purl.org/dc/dcmitype/StillImage" />
      </cc:Work>
    </rdf:RDF>
  </metadata>
  <defs
     id="defs125" />
  <sodipodi:namedview
     inkscape:current-layer="Contours"
     inkscape:window-maximized="0"
     inkscape:window-y="23"
     inkscape:window-x="0"
     inkscape:cy="1052.5714"
     inkscape:cx="1093.4286"
     inkscape:zoom="0.35"
     showgrid="false"
     id="namedview123"
     inkscape:window-height="755"
     inkscape:window-width="1280"
     inkscape:pageshadow="2"
     inkscape:pageopacity="0"
     guidetolerance="10"
     gridtolerance="10"
     objecttolerance="10"
     borderopacity="1"
     inkscape:document-rotation="0"
     bordercolor="#666666"
     pagecolor="#ffffff" />
  <g
     transform="matrix(0.50495746,0,0,0.50495746,132.00011,-4.78726)"
     id="g1284"
     style="opacity:1;stop-opacity:1">
    <path
       inkscape:connector-curvature="0"
       class="selected"
       fill="#000000"
       opacity="1.000000"
       stroke="none"
       d="m 1520.8793,29.559626 c 4.6073,11.068767 2.6751,23.664415 0.2567,35.407327 -4.3861,21.296867 -10.1313,42.313747 -17.1889,62.880327 -1.4521,4.23156 -3.0925,8.64348 -6.4826,11.56268 -3.3901,2.9192 -9.0906,3.65482 -12.1275,0.36968 -3.2555,-3.52167 -1.8196,-9.11947 -0.2548,-13.65289 8.3186,-24.09968 14.8139,-48.828431 19.4122,-73.905264 1.4069,-7.671952 1.3924,-17.781158 -5.8341,-20.71656 -7.8635,-3.194181 -14.5931,-9.105654 -18.7743,-16.491803 -0.8045,-1.421225 -1.5272,-2.925699 -1.7537,-4.54306 -0.9216,-6.580439 7.0815,-11.535754 13.605,-10.272488 6.5235,1.263266 11.4897,6.408172 15.9984,11.289081 5.0823,5.501873 10.2653,11.158087 13.1436,18.072969 z"
       id="path118" />
    <path
       inkscape:connector-curvature="0"
       class="selected"
       fill="#000000"
       opacity="1.000000"
       stroke="none"
       d="M 24.670912,67.637228 C 102.7537,71.827199 180.83649,76.01717 258.91928,80.207141 670.99276,102.31926 1087.2127,124.2103 1493.8718,54.054127 c 6.4966,11.756919 -11.1316,21.725889 -24.4155,23.717985 -62.6769,9.399054 -125.5976,17.172165 -188.6775,23.308858 C 892.42527,138.86172 501.01681,114.44044 111.59658,89.99265 79.828831,87.998272 47.821857,85.966363 17.043653,77.850352 c -7.896876,8.003445 3.481945,19.967009 12.569861,26.587098 9.087915,6.62009 14.526479,24.38222 3.378251,25.84262 -2.989654,0.39164 -5.910643,-1.00356 -8.487452,-2.56927 C -6.562905,108.83379 -8.507677,56.737528 21.065663,35.596791 25.615157,32.344548 32.424337,29.99859 36.3438,33.987674 45.452175,43.257843 19.49761,55.715169 24.670911,67.637227 Z"
       id="path120" />
  </g>
</svg>

<?xml version="1.0" encoding="utf-8"?><!DOCTYPE svg PUBLIC "-//W3C//DTD SVG 1.1//EN" "http://www.w3.org/Graphics/SVG/1.1/DTD/svg11.dtd"><svg version="1.1" id="Contours" xmlns="http://www.w3.org/2000/svg" xmlns:xlink="http://www.w3.org/1999/xlink" x="0px" y="0px" width="1523.678589px" height="1523.678589px" viewBox="-0.000005 -0.000022 1523.678589 141.939728" enable-background="new 0 0 1523.678589 1523.678589" xml:space="preserve" stroke="black" fill="none" stroke-linecap='round' stroke-linejoin='round'><path class="selected"  fill="#000000" opacity="1.000000" stroke="none" 
 	d="
M1520.879313 29.559626 C1525.486624 40.628393 1523.554448 53.224041 1521.135989 64.966953 C1516.749887 86.263820 1511.004748 107.280696 1503.947126 127.847280 C1502.495025 132.078842 1500.854641 136.490760 1497.464514 139.409962 C1494.074387 142.329165 1488.373905 143.064778 1485.337037 139.779640 C1482.081510 136.257970 1483.517412 130.660175 1485.082226 126.126747 C1493.400770 102.027075 1499.896112 77.298319 1504.494447 52.221486 C1505.901251 44.549534 1505.886766 34.440328 1498.660332 31.504926 C1490.796826 28.310745 1484.067182 22.399272 1479.885996 15.013123 C1479.081458 13.591898 1478.358757 12.087424 1478.132256 10.470063 C1477.210712 3.889624 1485.213836 -1.065691 1491.737299 0.197575 C1498.260761 1.460841 1503.227025 6.605747 1507.735698 11.486656 C1512.817973 16.988529 1518.001033 22.644743 1520.879313 29.559625 z"/><path class="selected"  fill="#000000" opacity="1.000000" stroke="none" 
 	d="
M24.670912 67.637228 C102.753700 71.827199 180.836489 76.017170 258.919277 80.207141 C670.992765 102.319262 1087.212720 124.210300 1493.871812 54.054127 C1500.368400 65.811046 1482.740176 75.780016 1469.456263 77.772112 C1406.779369 87.171166 1343.858663 94.944277 1280.778751 101.080971 C892.425271 138.861719 501.016813 114.440445 111.596582 89.992650 C79.828831 87.998272 47.821857 85.966363 17.043653 77.850352 C9.146777 85.853797 20.525598 97.817361 29.613514 104.437449 C38.701429 111.057537 44.139993 128.819669 32.991765 130.280070 C30.002111 130.671712 27.081122 129.276514 24.504313 127.710799 C-6.562905 108.833793 -8.507677 56.737528 21.065663 35.596791 C25.615157 32.344548 32.424337 29.998590 36.343800 33.987674 C45.452175 43.257843 19.497610 55.715169 24.670911 67.637227 z"/></svg>
